libs/ui/packages/crypto-icons/src/svg/GEMSTON.svg

<svg width="24" height="24" viewBox="0 0 24 24" fill="none" xmlns="http://www.w3.org/2000/svg">
<path fill-rule="evenodd" clip-rule="evenodd" d="M17.3475 4.71466C17.3328 4.69756 17.3172 4.68161 17.3006 4.66687ZM17.3485 4.7159L20.8035 8.74665C20.9589 8.92803 20.9644 9.19405 20.8165 9.38164L12.5879 19.8173C12.5664 19.8452 12.542 19.8707 12.5153 19.8934C12.4907 19.9142 12.4642 19.9326 12.4361 19.9483C12.3631 19.9893 12.2793 20.0121 12.1915 20.0121C12.0969 20.012 12.0071 19.9853 11.9303 19.9382C11.8997 19.9194 11.8711 19.8973 11.8451 19.8723C11.8284 19.8562 11.8127 19.8389 11.7983 19.8205L3.44976 9.40884C3.29732 9.21872 3.30413 8.9464 3.4659 8.76414L7.06464 4.70955C7.0766 4.69598 7.08923 4.68312 7.10247 4.67102C7.19584 4.58563 7.31782 4.53919 7.44326 4.54005C7.47563 4.54027 7.50823 4.54365 7.54063 4.55031M7.23804 6.02064L8.09143 8.59605H4.95217L7.23804 6.02064ZM4.88165 9.59605H8.42136L10.8613 17.0535L4.88165 9.59605ZM13.5498 16.9824L19.3929 9.57205H15.9858L13.5498 16.9824ZM14.5449 8.57583L12.1943 5.81435L9.86021 8.59227L14.5449 8.57583ZM15.4299 8.07279L13.274 5.54005H16.2741L15.4299 8.07279ZM16.3176 8.57205L17.1629 6.03594L19.3367 8.57205H16.3176ZM17.0368 4.54482C17.0141 4.54166 16.9911 4.54005 16.9678 4.54005H7.44326M17.0368 4.54482C17.0992 4.55351 17.1594 4.57392 17.2142 4.60493C17.2449 4.62231 17.2739 4.64302 17.3006 4.66687M11.1187 5.54005H8.13226L8.9769 8.08905L11.1187 5.54005ZM9.47273 9.59364L14.9324 9.57448L12.193 17.9076L9.47273 9.59364Z" fill="white"/>
</svg>

<svg xmlns="http://www.w3.org/2000/svg" width="24" height="24" viewBox="0 0 24 24" fill="none"><path fill="#fff" fill-rule="evenodd" d="m17.348 4.715-.047-.048Zm0 0 3.456 4.032a.5.5 0 0 1 .013.635l-8.23 10.435a.503.503 0 0 1-.657.121.5.5 0 0 1-.132-.117L3.45 9.408a.5.5 0 0 1 .016-.645L7.065 4.71a.5.5 0 0 1 .476-.16m-.303 1.47.853 2.576H4.952zM4.882 9.597h3.54l2.44 7.458zm8.668 7.386 5.843-7.41h-3.407zm.995-8.406-2.35-2.762L9.86 8.592zm.885-.503L13.274 5.54h3zm.888.5.845-2.537 2.174 2.536zm.719-4.028-.07-.005H7.444m9.594.005a.5.5 0 0 1 .264.122m-6.182.873H8.132l.845 2.55zM9.473 9.594l5.46-.02-2.74 8.334z" clip-rule="evenodd"/></svg>
